website/src/static/table/sorting.svg

<svg width="144" height="80" viewBox="0 0 144 80" fill="none" xmlns="http://www.w3.org/2000/svg">
<g clip-path="url(#clip0_430_19411)">
<g clip-path="url(#clip1_430_19411)">
<mask id="path-3-inside-1_430_19411" fill="white">
<path d="M76 0H144V80H76V0Z"/>
</mask>
<path d="M76 0H144V80H76V0Z" fill="#E0E1E9"/>
<path d="M144 79H76V81H144V79Z" fill="#E0E1E9" mask="url(#path-3-inside-1_430_19411)"/>
<path d="M95.5795 34.2102V33.2727H102.125V34.2102H99.3807V42H98.3239V34.2102H95.5795ZM103.756 42V33.2727H104.813V37.1591H109.466V33.2727H110.523V42H109.466V38.0966H104.813V42H103.756Z" fill="#191B23"/>
<path d="M129 33C129.552 33 130 33.4477 130 34C130 34.5523 129.552 35 129 35H119C118.448 35 118 34.5523 118 34C118 33.4477 118.448 33 119 33H129Z" fill="#8A8E9B"/>
<path d="M126 38C126 37.4477 125.552 37 125 37H119C118.448 37 118 37.4477 118 38C118 38.5523 118.448 39 119 39H125C125.552 39 126 38.5523 126 38Z" fill="#8A8E9B"/>
<path d="M122 42C122 41.4477 121.552 41 121 41H119C118.448 41 118 41.4477 118 42C118 42.5523 118.448 43 119 43H121C121.552 43 122 42.5523 122 42Z" fill="#8A8E9B"/>
</g>
<g clip-path="url(#clip2_430_19411)">
<mask id="path-7-inside-2_430_19411" fill="white">
<path d="M0 0H76V80H0V0Z"/>
</mask>
<path d="M0 0H76V80H0V0Z" fill="#F4F5F9"/>
<path d="M76 80V81H77V80H76ZM75 0V80H77V0H75ZM76 79H0V81H76V79Z" fill="#E0E1E9" mask="url(#path-7-inside-2_430_19411)"/>
<path d="M30.0795 34.2102V33.2727H36.625V34.2102H33.8807V42H32.8239V34.2102H30.0795ZM38.256 42V33.2727H39.3129V37.1591H43.9663V33.2727H45.0231V42H43.9663V38.0966H39.3129V42H38.256Z" fill="#191B23"/>
</g>
</g>
<rect x="0.5" y="0.5" width="143" height="79" rx="5.5" stroke="#E0E1E9"/>
<defs>
<clipPath id="clip0_430_19411">
<rect width="144" height="80" rx="6" fill="white"/>
</clipPath>
<clipPath id="clip1_430_19411">
<rect width="68" height="80" fill="white" transform="translate(76)"/>
</clipPath>
<clipPath id="clip2_430_19411">
<rect width="76" height="80" fill="white"/>
</clipPath>
</defs>
</svg>

<svg xmlns="http://www.w3.org/2000/svg" width="144" height="80" fill="none"><g clip-path="url(#a)"><mask id="b" fill="#fff"><path d="M76 0h68v80H76V0Z"/></mask><path fill="#E0E1E9" d="M76 0h68v80H76V0Z"/><path fill="#191B23" d="M95.58 34.21v-.937h6.545v.937h-2.744V42h-1.057v-7.79h-2.745Zm8.176 7.79v-8.727h1.057v3.886h4.653v-3.886h1.057V42h-1.057v-3.903h-4.653V42h-1.057Z"/><path fill="#8A8E9B" d="M129 33a1 1 0 0 1 0 2h-10a1 1 0 0 1 0-2h10ZM126 38a1 1 0 0 0-1-1h-6a1 1 0 0 0 0 2h6a1 1 0 0 0 1-1ZM122 42a1 1 0 0 0-1-1h-2a1 1 0 0 0 0 2h2a1 1 0 0 0 1-1Z"/><path fill="#E0E1E9" d="M144 79H76v2h68v-2Z" mask="url(#b)"/></g><g clip-path="url(#c)"><mask id="d" fill="#fff"><path d="M0 0h76v80H0V0Z"/></mask><path fill="#F4F5F9" d="M0 0h76v80H0V0Z"/><path fill="#191B23" d="M12.58 34.21v-.937h6.545v.937h-2.744V42h-1.057v-7.79h-2.745ZM20.755 42v-8.727h1.057v3.886h4.653v-3.886h1.057V42h-1.057v-3.903h-4.653V42h-1.057Z"/><path fill="#E0E1E9" d="M76 80v1h1v-1h-1ZM75 0v80h2V0h-2Zm1 79H0v2h76v-2Z" mask="url(#d)"/></g><defs><clipPath id="a"><path fill="#fff" d="M76 0h68v80H76z"/></clipPath><clipPath id="c"><path fill="#fff" d="M0 0h76v80H0z"/></clipPath></defs></svg>
